X:3
T:Jack's Gone a Shearing
Z:robin.beech@mcgill.ca
S:John Offord
N:John Offord, Reproduced with Permission
M:3/2
L:1/4
K:Dmix
D/E/F/G/ AD FA | cG G=F EC | D/E/F/G/ AD FA | dA AG FD ::
DF EG FA | cG G=F EC | DF EG FA | dA AG FD ::
fd ge fa | ge ed ^cA | fd ge fa | dA AG FD :|
